X: 14259
T: Første August
R: reel
M: 4/4
K: Dmajor
|:A3G F2A2|dcde d2d2|c2d2 e2c2|dcde f2f2|
A3G F2A2|dcde d2d2|c2c2 B2B2|B4 A4:|
|:g3a g2e2|f3g f2d2|e3f e2c2|dcde f2d2|
g3a g2e2|f3g f2d2|e3f e2c2|d4 d4:|

